source/svgs/bowtie/uEA1F-test-explore-fill.svg

<svg xmlns="http://www.w3.org/2000/svg" viewBox="0 0 448 448" enable-background="new 0 0 448 448"><path d="M203.1 448h-113.8c-29.8 0-56.9-16.3-70.8-42.7-13.9-26.3-12.1-58 4.7-82.5l136.8-199.7v-91.1h-32v-32h192v32h-32v91.1l3.8 5.6c-11.9.8-23.5 2.8-34.7 5.9l-1.1-1.6v-101h-64v100.9l-84.2 123.1h27c-4.3 15.3-6.8 31.3-6.8 48 0 59.5 29.8 112.1 75.1 144zm244.9-144c0 79.4-64.6 144-144 144s-144-64.6-144-144 64.6-144 144-144 144 64.6 144 144zm-33.6 16h-30.4v-32h30.4c-7.1-48.9-45.5-87.3-94.4-94.4v30.4h-32v-30.4c-48.9 7.1-87.3 45.5-94.4 94.4h30.4v32h-30.4c7.1 48.9 45.5 87.3 94.4 94.4v-30.4h32v30.4c48.9-7.1 87.3-45.5 94.4-94.4zm-49.1-77.3l-90.6 45.3c-12.5 12.5-12.5 32.8 0 45.3s32.8 12.5 45.3 0l45.3-90.6z"/></svg>

<svg xmlns="http://www.w3.org/2000/svg" viewBox="0 0 448 448"><path d="M203.1 448H89.3c-29.8 0-56.9-16.3-70.8-42.7-13.9-26.3-12.1-58 4.7-82.5L160 123.1V32h-32V0h192v32h-32v91.1l3.8 5.6c-11.9.8-23.5 2.8-34.7 5.9L256 133V32h-64v100.9L107.8 256h27c-4.3 15.3-6.8 31.3-6.8 48 0 59.5 29.8 112.1 75.1 144zM448 304c0 79.4-64.6 144-144 144s-144-64.6-144-144 64.6-144 144-144 144 64.6 144 144zm-33.6 16H384v-32h30.4c-7.1-48.9-45.5-87.3-94.4-94.4V224h-32v-30.4c-48.9 7.1-87.3 45.5-94.4 94.4H224v32h-30.4c7.1 48.9 45.5 87.3 94.4 94.4V384h32v30.4c48.9-7.1 87.3-45.5 94.4-94.4zm-49.1-77.3L274.7 288c-12.5 12.5-12.5 32.8 0 45.3s32.8 12.5 45.3 0l45.3-90.6z"/></svg>
